X:1
T:Miller of Drone [1], The
L:1/8
M:4/4
I:linebreak $
K:Emin
V:1 treble 
V:1
 BA | GEEG DEDB, | G,2 cB A2 BA | GEEG DEDB, | D/D/D EF G2 :|"^loco" Bc | dBBg dd (e/d/c/B/) |$ %7
 dBBg e2 (3efg | dBBg dd (e/d/c/B/) | cABG E2 Bc | dBBg dd (e/d/c/B/) | dBBg e2 ef |$ %12
 (3gfe (3def (3gfe (3dcB | c>A B>G E2!D.C.! || %14
